images/thumb_hans-1.svg

<svg xmlns="http://www.w3.org/2000/svg" viewBox="0 0 180 180"><defs><style>.cls-1{fill:#d8d8d8;}.cls-2{fill:#c8c8c8;}</style></defs><title>thumb_hans-1</title><g id="Layer_2" data-name="Layer 2"><rect class="cls-1" y="0.08" width="180" height="180"/></g><g id="Layer_1" data-name="Layer 1"><path class="cls-2" d="M162.16,126.75c-4.56,0-7.17-2.39-7.17-7V60.86c0-16.08-8.9-25.19-24.76-25.19H81.1V53.25H95v73.5H81.1v17.58h47.16V126.75H114.55V53.25h8.27c8.05,0,12.62,5,12.62,13v60.46c0,11.07,6.73,17.58,17.8,17.58H168.9V126.75ZM43,126.75c-8.49,0-12.4-4.57-12.4-13.06s3.92-13.06,12.4-13.06H54.36v26.11Zm30.85,0V58c0-13.25-8.9-22.37-22.15-22.37H16.31V53.25H41.52c8.27,0,12.84,5,12.84,13.06V82.84H40.43c-19.13,0-29.33,11.72-29.33,30.86s10.42,30.64,29.33,30.64H87.81V126.75Z"/></g></svg>

<?xml version="1.0" encoding="utf-8"?>
<!-- Generator: Adobe Illustrator 22.0.1, SVG Export Plug-In . SVG Version: 6.00 Build 0)  -->
<svg version="1.1" xmlns="http://www.w3.org/2000/svg" xmlns:xlink="http://www.w3.org/1999/xlink" x="0px" y="0px"
	 viewBox="0 0 180 180" style="enable-background:new 0 0 180 180;" xml:space="preserve">
<style type="text/css">
	.st0{fill:#ED5400;}
	.st1{fill:#6943DF;}
	.st2{fill:#333333;}
	.st3{fill:#896F42;}
	.st4{fill:#E7B96D;}
	.st5{fill:#1AD1F2;}
	.st6{fill:#85941E;}
	.st7{fill:#B8B8B8;}
	.st8{fill:#C9C9C9;}
	.st9{fill:#A6A6A6;}
	.st10{fill:#DBDBDB;}
	.st11{fill:#11DDAA;}
	.st12{fill:#FF6699;}
	.st13{fill:#2255FF;}
	.st14{fill:#DDAA00;}
	.st15{fill:#FFDDA0;}
	.st16{fill:#FF5A27;}
	.st17{fill:#11DDFF;}
	.st18{fill:#C5C5C5;}
	.st19{fill:#A7A7A7;}
	.st20{fill:#B0B0B0;}
	.st21{fill:#A4A4A4;}
	.st22{fill:#868686;}
	.st23{fill:#9A9A9A;}
	.st24{fill:#585858;}
	.st25{fill:#C0C0C0;}
	.st26{fill:#C8C8C8;}
	.st27{fill:#D0D0D0;}
	.st28{fill:#D8D8D8;}
	.st29{fill:#EAEAEA;}
	.st30{fill:#E5E5E5;}
	.st31{fill:#ED3024;}
	.st32{fill:#D4A04A;}
	.st33{fill:#AE6E04;}
	.st34{fill:#543500;}
	.st35{fill:#BCA6FF;}
	.st36{fill:#3B2287;}
	.st37{fill:#B0BA67;}
	.st38{fill:#343A09;}
	.st39{fill:#A13800;}
	.st40{fill:#73EBFF;}
	.st41{fill:#18C8E8;}
	.st42{fill:#DFB269;}
	.st43{fill:#E7621B;}
	.st44{fill:#E35000;}
	.st45{fill:#088AA1;}
	.st46{fill:#613DD3;}
	.st47{fill:#282828;}
	.st48{fill:#7C8A18;}
	.st49{fill:#C472E4;}
	.st50{fill:#4D4D4D;}
	.st51{fill:#231F20;}
	.st52{fill:#ADADAD;}
	.st53{fill:#7F673D;}
	.st54{fill:#00CC99;}
	.st55{fill:#EE5588;}
	.st56{fill:#CCCCCC;}
	.st57{fill:#979797;}
	.st58{fill:#BFBFBF;}
	.st59{fill:#BCBCBC;}
	.st60{fill:#00CCFF;}
	.st61{clip-path:url(#SVGID_2_);fill:#B8B8B8;}
	.st62{fill:#0099FF;}
	.st63{fill:#FF3300;}
	.st64{fill:#FFCC00;}
	.st65{fill:#0033FF;}
	.st66{fill:#9966CC;}
	.st67{fill:#CC9900;}
	.st68{fill:#949494;}
	.st69{fill:#6B6B6B;}
	.st70{fill:#898989;}
	.st71{fill:#9F9F9F;}
	.st72{fill:#3A3A3A;}
	.st73{fill:#B6B6B6;}
	.st74{fill:#818181;}
	.st75{fill:#767676;}
	.st76{display:none;}
	.st77{display:inline;}
	.st78{fill:#FFFFFF;}
</style>
<g id="Layer_2">
	<rect x="0" y="0.1" class="st28" width="180" height="180"/>
</g>
<g id="Layer_1">
	<path class="st26" d="M162.2,126.8c-4.6,0-7.2-2.4-7.2-7V60.9c0-16.1-8.9-25.2-24.8-25.2H81.1v17.6H95v73.5H81.1v17.6h47.2v-17.6
		h-13.7V53.2h8.3c8.1,0,12.6,5,12.6,13v60.5c0,11.1,6.7,17.6,17.8,17.6h15.6v-17.6H162.2z M43,126.8c-8.5,0-12.4-4.6-12.4-13.1
		c0-8.5,3.9-13.1,12.4-13.1h11.3v26.1H43z M73.9,126.8V58c0-13.3-8.9-22.4-22.1-22.4H16.3v17.6h25.2c8.3,0,12.8,5,12.8,13.1v16.5
		H40.4c-19.1,0-29.3,11.7-29.3,30.9c0,19.1,10.4,30.6,29.3,30.6h47.4v-17.6H73.9z"/>
</g>
<g id="Layer_3" class="st76">
</g>
</svg>
